src/16/panel/flareget-panel.svg

<svg xmlns="http://www.w3.org/2000/svg" width="16" height="16" version="1.1">
 <defs>
  <style id="current-color-scheme" type="text/css">
   .ColorScheme-Text { color:#dfdfdf; } .ColorScheme-Highlight { color:#4285f4; }
  </style>
 </defs>
 <path style="fill:currentColor" class="ColorScheme-Text" d="M 4.996,0.99905 V 8.999 H 1.996 L 7.996,15 13.996,8.999 H 10.996 V 0.99905 Z M 5.996,1.9991 H 6.996 9.996 V 2.999 H 6.996 V 4.9989 H 8.996 V 5.9989 H 6.996 V 8.999 H 5.996 V 5.9989 4.9989 2.999 Z"/>
</svg>

<svg xmlns="http://www.w3.org/2000/svg" width="16" height="16"><defs><style id="current-color-scheme" type="text/css">.ColorScheme-Text{color:#dfdfdf;}.ColorScheme-Highlight{color:#5294e2;}</style></defs><defs><style id="current-color-scheme" type="text/css"></style></defs><path d="M4.996.999v8h-3l6 6.001 6-6.001h-3v-8zm1 1h4v1h-3v2h2v1h-2v3h-1v-6z" fill="currentColor" class="ColorScheme-Text"/></svg>
